X:1
T:Sing the Love of Jesus
T:Charles Hutchinson Gabriel
T:Sing the Love of Jesus
T:Public Domain
T:Public Domain
C:Charles Hutchinson Gabriel
Z:Public Domain
%%score ( 1 2 ) ( 3 4 )
L:1/8
M:9/8
K:Ab
V:1 treble 
V:2 treble 
V:3 bass 
V:4 bass 
V:1
 [CE]2 [CE] | [CA]3- [CA]2 [CA] (cB)[EA] | [EB]3 [EB]3 (Bc)[Ed] | [Ec]2 [FB] [EA]3 [DG]3 | %4
w: 1.~Sing, O|sing, * the dear * old|ry Of our * Sav-|match- less love; Sing|
w: 2.~Sing of|love * to you * so|cious, Tell, in * song,|Je- sus died; Let|
w: 3.~Ye re-|deemed * ones, sing * the|ry! Sing it * o’er|o’er a- gain, Un-|
 [CA]3- [CA]2 z [CE]2 [CE] | [CA]3- [CA]2 [CA] (cB)[EA] | [EB]3 [EB]3 (Bc)[Ed] | %7
w: of * Je- sus|and * His glo- * ry|the ran- somed * host|
w: sweet * mu- sic|draw * the mill- * ions|the dear Re- * deem-|
w: til * ev- ery|tribe * and na- * tion|to sing the * glad|
 [Ec]2 [FB] [EA]3 [DG]3 | [CA]3- [CA]2 z ||"^Refrain" [Ee]2 [Ee] | (G2 G eB)[Ac] ([Bd][Ac])[GB] | %11
w: bove. Sing, O sing|the *|love of|Je- * * * sus— Sound * His|
w: side. * * *||||
w: frain. * * *||||
 (A2 A) (E2 E) [Ee]2 [Ee] | (G2 G eB)[Ac] ([Bd][Ac])[GB] | (A2 A [Ac]2) z c2 B | %14
w: far * * * and near;|won- * * * drous sto- * ry|’Till * * the whole|
w: |||
w: |||
 (F2 F [FA]2) [FB] [FA]2 [DF] | [CE]3 [EA]3 c2 d | (A2 A [Ae]2) [Bd] [Ac]2 [EB] | [EA]3- [EA]2 z |] %18
w: world * * shall hear. *||||
w: ||||
w: ||||
V:2
 x3 | x6 E2 x | x6 E2 x | x9 | x9 | x6 E2 x | x6 E2 x | x9 | x6 || x3 | e3- G2 x4 | c3 A3 x3 | %12
w: |sto-|ior’s|||With|a-||||prais- es|Sing the|
w: |pre-|how|||To|er’s||||||
w: |sto-|and|||Join|re-||||||
 e3- G2 x4 | c3- x6 | A3- x6 | x9 | e3- x6 | x6 |] %18
w: o- ver,|wide|||||
w: ||||||
w: ||||||
V:3
 [A,,A,]2 [A,,A,] | [A,,E,]3- [A,,E,]2 [A,,E,] ([A,,A,][B,,G,])[C,A,] | %2
w: ~ ~|~ * ~ ~ * ~|
 [E,G,]3 [E,G,]3 (G,A,)[E,B,] | A,2 [D,D] [E,C]3 [E,B,]3 | [A,,A,]3- [A,,A,]2 z [A,,A,]2 [A,,A,] | %5
w: ~ ~ ~ * ~|~ ~ ~ ~|~ * ~ ~|
 [A,,E,]3- [A,,E,]2 [A,,E,] ([A,,A,][B,,G,])[C,A,] | [E,G,]3 [E,G,]3 (G,A,)[E,B,] | %7
w: ~ * ~ ~ * ~|~ ~ ~ * ~|
 A,2 [D,D] [E,C]3 [E,B,]3 | [A,,A,]3- [A,,A,]2 z || z3 | %10
w: ~ ~ Sing, O|the *||
 [E,B,]2 [E,B,] [E,B,]2 [E,E] [E,E]2 [E,E] | [A,E]2 [A,E] [A,C]2 [A,C] z3 | %12
w: love, the love of Je- sus,|Sound His prais- es,|
 [E,B,]2 [E,B,] [E,B,]2 [E,E] [E,E]2 [E,E] | [A,,E]2 [A,,E] [A,,E]2 z4 | %14
w: prais- es far and near, Sing|the won- drous|
 [D,D]2 [D,D] [D,D]2 [D,D] [D,D]2 [D,A,] | [A,,A,]3 [A,,C]3 z3 | %16
w: sto- ry o- ver, ’Till the|whole wide|
 [E,C]2 [E,C] [E,C]2 [E,E] [E,E]2 [E,D] | [A,,C]3- [A,,C]2 z |] %18
w: world shall hear. * * *||
V:4
 x3 | x9 | x6 E,2 x | A,2 x7 | x9 | x9 | x6 E,2 x | A,2 x7 | x6 || x3 | x9 | x9 | x9 | x9 | x9 | %15
w: ||~|~|||~|sing||||||||
 x9 | x9 | x6 |] %18
w: |||

